svg/u1f990.svg

<svg viewBox="0 0 128 128" xmlns="http://www.w3.org/2000/svg">
  <path d="M120.4,66.39c-2.66-4.38-6.22-5.56-6.22-5.56s-0.76-4.25-4.43-7.3c-3.85-3.19-10.16-4.15-17.88-3.57 c-9.34,0.7-17.88,7.13-17.88,7.13s-2.77-4.65-6.24-7.04c-2.49-1.72-9.53-5.82-17.32-6.29c-9.98-0.6-21.96,1.55-21.96,1.55 s-7.56-4.13-9.67-5.87c-2.11-1.74-4.79-4.83-6.95-6.76c-2.03-1.81-3.33-4.04-4.55-3.66c-0.75,0.23-1.03,1.08-0.66,2.06 s3.61,5.73,4.18,6.66c0.56,0.94,4.13,5.91,4.13,5.91s-2.49-0.84-4.5-1.97c-1.16-0.65-4.74-2.3-5.63-1.27 c-1.11,1.28,3.47,4.08,5.44,5.44c1.97,1.36,6.52,5.02,6.52,5.02s-1.08,0.09-2.63,0.09s-3.05,0.23-2.82,1.41 c0.23,1.17,3.57,1.78,5.68,2.82c2.11,1.03,7.04,2.72,7.04,2.72l10.28,5.63l7.6,7.37c0,0-6.48,0.19-7.98-0.23s-3.89-1.74-5.07-1.97 c-1.17-0.23-5.73,2.3-9.15,3.8s-5.58,2.69-5.44,3.43c0.31,1.67,3.47,1.08,5.21,0.7c1.74-0.38,9.24-3.33,9.24-3.33 s0.82,0.73,1.6,1.24c1.09,0.73,2.53,1.38,2.53,1.38s-2.35,0.09-3.38,0.75c-1.03,0.66-1.5,2.16-2.06,3.75 c-0.56,1.6-3.47,6.76-4.69,8.54s-3.75,5.3-3.1,6.24c0.66,0.94,1.5,0.75,2.16,0.38c0.66-0.38,4.97-5.58,6.57-7.65 c1.6-2.06,5.07-7.13,5.07-7.13s1.55,0.36,2.25,0.47c0.94,0.14,3.1,0.28,3.1,0.28s-2.14,0.7-2.44,2.53 c-0.21,1.26-1.55,4.88-1.92,6.48c-0.38,1.6-3.05,6.76-3.24,7.6c-0.19,0.84-0.12,3.38,0.07,5.07c0.19,1.69,0.31,4.69,1.9,4.5 c1.6-0.19,1.69-7.51,1.69-7.51s2.82-4.27,3.94-6.71c1.13-2.44,2.35-7.65,2.35-7.65s2.77,0.23,3.8,0.23s3.33-0.23,3.33-0.23 s-1.88,9.85-1.31,15.11c0.56,5.26,1.92,11.54,3.52,11.54c1.6,0,1.38-3.14,1.48-5.68c0.09-2.53-0.49-3.52-0.21-7.84 c0.28-4.32,2.44-11.92,2.44-11.92s7.65,0.75,11.17,0c2.39-0.51,6.94-1.46,9.06-3.43c1.31-1.22,1.45-2.49,1.45-2.49l6.62-0.14 l14.22-0.89l6.24-5.26c0,0,1.83,1.03,3.21,2.72c1.38,1.69,2.84,3.1,3.24,6.55c0.4,3.45,0.21,7.44,0.21,7.44s-2.96,0.89-5.58,2.16 c-2.91,1.41-7.24,5.23-8.92,7.13c-2.11,2.39-4.04,6.38-3.57,6.95c0.47,0.56,4.62-0.45,6.01-0.94c1.37-0.49,5.44-2.53,5.44-2.53 s-2.06,2.44-3.19,3.85c-1.13,1.41-4.97,6.66-4.88,7.51c0.09,0.84,8.26,0.33,14.08-2.06c5.44-2.24,10.28-8.02,11.36-12.29 c0.95-3.77-0.05-8.8-0.05-8.8l1.06-2.56c0,0,1.38-2.52,1.9-6.24C123.73,80.42,123.87,72.11,120.4,66.39z M66.95,80.51 c-1.5,0.61-3.57,0.52-3.57,0.52s1.77-0.83,2.39-1.27c0.8-0.56,1.64-1.08,2.53-0.8S68.45,79.9,66.95,80.51z" fill="#FE6117"/>
  <path d="M26.31,46.93c-0.37,0-0.74-0.15-1.01-0.45c-0.51-0.56-0.48-1.43,0.08-1.94 c0.43-0.39,10.63-9.7,19.97-13.23c8.3-3.13,16.17-4.55,24.08-4.31c2.73,0.08,6.93,0.51,11.37,0.97c6.03,0.62,12.86,1.34,17.29,1.28 c7.53-0.09,12.7-1.27,12.75-1.28c0.74-0.17,1.48,0.29,1.65,1.03c0.17,0.74-0.29,1.48-1.03,1.65c-0.22,0.05-5.49,1.25-13.34,1.35 c-4.59,0.07-11.51-0.66-17.61-1.29c-4.39-0.45-8.53-0.88-11.17-0.96c-7.54-0.23-15.07,1.13-23.03,4.13 c-8.84,3.34-18.98,12.59-19.08,12.68C26.98,46.81,26.64,46.93,26.31,46.93z" fill="#FE6117"/>
  <path d="M21.15,43.17c-0.25,0-0.5-0.07-0.73-0.21c-0.64-0.4-0.84-1.25-0.43-1.9 c0.19-0.3,4.66-7.33,11.34-11.33c6.06-3.63,15.61-8.1,26.72-8.73c10.11-0.58,18.43-0.85,26.17-0.85c6.96,0,12.55-0.55,15-1.09 c2.31-0.51,4.6-1.73,4.62-1.75c0.67-0.36,1.5-0.11,1.86,0.56s0.11,1.5-0.56,1.86c-0.11,0.06-2.64,1.41-5.33,2.01 c-2.6,0.58-8.42,1.16-15.6,1.16c-7.69,0-15.96,0.27-26.01,0.84c-10.55,0.6-19.67,4.87-25.46,8.35 c-6.12,3.67-10.39,10.37-10.43,10.44C22.05,42.95,21.6,43.17,21.15,43.17z" fill="#FE6117"/>
  <path d="M109.7,88.63c0,0,2.38,2,5.33,2.46c3.59,0.56,6.34-1.06,6.34-1.06l-0.92,3.59c0,0-2.58,1.15-6.1,0.45 c-2.8-0.56-4.74-2.14-4.74-2.14L109.7,88.63z" fill="#FE8E06"/>
  <path d="M108.53,80.91c0,0,4.93,0.07,8.59-1.2c3.89-1.35,6.15-4.41,6.15-4.41l0.28,4.55 c0,0-1.43,2.02-5.73,3.57c-3.02,1.09-8.42,0.77-8.42,0.77L108.53,80.91z" fill="#FE8E06"/>
  <path d="M84.13,51.65l-3.36,1.45c0,0,6.67,6.89,7.44,12.79c0.84,6.48-1.48,10.97-2.11,12.39 c-0.56,1.27-1.27,2.46-1.27,2.46l-3.94,0.28c0,0,0.98,4.42,5.91,4.65c6.05,0.28,7.04-4.79,7.04-4.79s2.32,4.29,7.18,2.18 s2.82-7.04,2.82-7.04l2.32,1.62c0,0,4.33-1.84,7.11-7.25c2.46-4.79,2.56-8.87,2.23-9.1c-0.33-0.23-1.31-0.47-1.31-0.47 s-0.66-2.72-1.01-2.93c0.02,0.94-0.12,5.19-1.45,8.92c-1.08,3-2.83,5.53-4.93,6.97c-1.34,0.92-2.39,0.77-2.39,0.77 s2.96-5.56,1.48-13.8c-1.26-7-6.19-10.82-6.19-10.82l-4.43-0.16c0,0,5.77,3.31,7.25,12.11c1.15,6.87-1.41,13.3-3.03,14.64 c-1.62,1.34-10.56,3.17-10.56,3.17s3.66-7.18,2.82-13.59C90.86,59.56,87.01,54.33,84.13,51.65z" fill="#FE8E06"/>
  <path d="M41.68,58.29c-0.81,1.08,0.21,2.32,3.03,3.38c2.82,1.06,7.05,1.38,9.64,1.62 c3.1,0.28,9.15-0.49,10.28-0.99c1.13-0.49,1.48-1.97,0.84-2.67s-2.18-0.42-3.38-0.07c-1.2,0.35-3.31,0.8-7.53,0.63 c-3.66-0.14-8.27-0.8-9.57-1.41C43.93,58.29,42.52,57.17,41.68,58.29z" fill="#FE8E06"/>
  <path d="M24.06,57.94c0,0,6.85,10.98,21.68,14.92c11.59,3.08,18.02,0.09,19.71-0.84 c1.69-0.94,3.54-2.96,3-4.79c-0.66-2.25-4.76-2.11-11.99-1.55c-7.23,0.56-19.64-3.14-22.27-4.08S24.9,57.66,24.06,57.94z" fill="#FE8E06"/>
  <path d="M38.04,52.59c-1.25,1.85-4.5,2.32-6.3,0.9c-1.75-1.38-1.9-3.75-0.65-5.59s4.16-2.47,6.01-1.22 C38.95,47.93,39.29,50.75,38.04,52.59z" fill="#302C30"/>
</svg>

<svg viewBox="0 0 128 128" xmlns="http://www.w3.org/2000/svg">
  <defs/>
  <path d="M120.4,66.39 C117.74,62.01 114.18,60.83 114.18,60.83 C114.18,60.83 113.42,56.58 109.75,53.53 C105.9,50.34 99.59,49.38 91.87,49.96 C82.53,50.66 73.99,57.09 73.99,57.09 C73.99,57.09 71.22,52.44 67.75,50.05 C65.26,48.33 58.22,44.23 50.43,43.76 C40.45,43.16 28.47,45.31 28.47,45.31 C28.47,45.31 20.91,41.18 18.8,39.44 C16.69,37.7 14.01,34.61 11.85,32.68 C9.82,30.87 8.52,28.64 7.3,29.02 C6.55,29.25 6.27,30.1 6.64,31.08 C7.01,32.06 10.25,36.81 10.82,37.74 C11.38,38.68 14.95,43.65 14.95,43.65 C14.95,43.65 12.46,42.81 10.45,41.68 C9.29,41.03 5.71,39.38 4.82,40.41 C3.71,41.69 8.29,44.49 10.26,45.85 C12.23,47.21 16.78,50.87 16.78,50.87 C16.78,50.87 15.7,50.96 14.15,50.96 C12.6,50.96 11.1,51.19 11.33,52.37 C11.56,53.54 14.9,54.15 17.01,55.19 C19.12,56.22 24.05,57.91 24.05,57.91 L34.33,63.54 L41.93,70.91 C41.93,70.91 35.45,71.1 33.95,70.68 C32.45,70.26 30.06,68.94 28.88,68.71 C27.71,68.48 23.15,71.01 19.73,72.51 C16.31,74.01 14.15,75.2 14.29,75.94 C14.6,77.61 17.76,77.02 19.5,76.64 C21.24,76.26 28.74,73.31 28.74,73.31 C28.74,73.31 29.56,74.04 30.34,74.55 C31.43,75.28 32.87,75.93 32.87,75.93 C32.87,75.93 30.52,76.02 29.49,76.68 C28.46,77.34 27.99,78.84 27.43,80.43 C26.87,82.03 23.96,87.19 22.74,88.97 C21.52,90.75 18.99,94.27 19.64,95.21 C20.3,96.15 21.14,95.96 21.8,95.59 C22.46,95.21 26.77,90.01 28.37,87.94 C29.97,85.88 33.44,80.81 33.44,80.81 C33.44,80.81 34.99,81.17 35.69,81.28 C36.63,81.42 38.79,81.56 38.79,81.56 C38.79,81.56 36.65,82.26 36.35,84.09 C36.14,85.35 34.8,88.97 34.43,90.57 C34.05,92.17 31.38,97.33 31.19,98.17 C31,99.01 31.07,101.55 31.26,103.24 C31.45,104.93 31.57,107.93 33.16,107.74 C34.76,107.55 34.85,100.23 34.85,100.23 C34.85,100.23 37.67,95.96 38.79,93.52 C39.92,91.08 41.14,85.87 41.14,85.87 C41.14,85.87 43.91,86.1 44.94,86.1 C45.97,86.1 48.27,85.87 48.27,85.87 C48.27,85.87 46.39,95.72 46.96,100.98 C47.52,106.24 48.88,112.52 50.48,112.52 C52.08,112.52 51.86,109.38 51.96,106.84 C52.05,104.31 51.47,103.32 51.75,99 C52.03,94.68 54.19,87.08 54.19,87.08 C54.19,87.08 61.84,87.83 65.36,87.08 C67.75,86.57 72.3,85.62 74.42,83.65 C75.73,82.43 75.87,81.16 75.87,81.16 L82.49,81.02 L96.71,80.13 L102.95,74.87 C102.95,74.87 104.78,75.9 106.16,77.59 C107.54,79.28 109,80.69 109.4,84.14 C109.8,87.59 109.61,91.58 109.61,91.58 C109.61,91.58 106.65,92.47 104.03,93.74 C101.12,95.15 96.79,98.97 95.11,100.87 C93,103.26 91.07,107.25 91.54,107.82 C92.01,108.38 96.16,107.37 97.55,106.88 C98.92,106.39 102.99,104.35 102.99,104.35 C102.99,104.35 100.93,106.79 99.8,108.2 C98.67,109.61 94.83,114.86 94.92,115.71 C95.01,116.55 103.18,116.04 109,113.65 C114.44,111.41 119.28,105.63 120.36,101.36 C121.31,97.59 120.31,92.56 120.31,92.56 L121.37,90 C121.37,90 122.75,87.48 123.27,83.76 C123.73,80.42 123.87,72.11 120.4,66.39 Z M66.95,80.51 C65.45,81.12 63.38,81.03 63.38,81.03 C63.38,81.03 65.15,80.2 65.77,79.76 C66.57,79.2 67.41,78.68 68.3,78.96 C69.19,79.24 68.45,79.9 66.95,80.51 Z" fill="#FE6117"/>
  <path d="M26.31,46.93 C25.94,46.93 25.57,46.78 25.3,46.48 C24.79,45.92 24.82,45.05 25.38,44.54 C25.81,44.15 36.01,34.84 45.35,31.31 C53.65,28.18 61.52,26.76 69.43,27 C72.16,27.08 76.36,27.51 80.8,27.97 C86.83,28.59 93.66,29.31 98.09,29.25 C105.62,29.16 110.79,27.98 110.84,27.97 C111.58,27.8 112.32,28.26 112.49,29 C112.66,29.74 112.2,30.48 111.46,30.65 C111.24,30.7 105.97,31.9 98.12,32 C93.53,32.07 86.61,31.34 80.51,30.71 C76.12,30.26 71.98,29.83 69.34,29.75 C61.8,29.52 54.27,30.88 46.31,33.88 C37.47,37.22 27.33,46.47 27.23,46.56 C26.98,46.81 26.64,46.93 26.31,46.93 Z" fill="#FE6117"/>
  <path d="M21.15,43.17 C20.9,43.17 20.65,43.1 20.42,42.96 C19.78,42.56 19.58,41.71 19.99,41.06 C20.18,40.76 24.65,33.73 31.33,29.73 C37.39,26.1 46.94,21.63 58.05,21 C68.16,20.42 76.48,20.15 84.22,20.15 C91.18,20.15 96.77,19.6 99.22,19.06 C101.53,18.55 103.82,17.33 103.84,17.31 C104.51,16.95 105.34,17.2 105.7,17.87 C106.06,18.54 105.81,19.37 105.14,19.73 C105.03,19.79 102.5,21.14 99.81,21.74 C97.21,22.32 91.39,22.9 84.21,22.9 C76.52,22.9 68.25,23.17 58.2,23.74 C47.65,24.34 38.53,28.61 32.74,32.09 C26.62,35.76 22.35,42.46 22.31,42.53 C22.05,42.95 21.6,43.17 21.15,43.17 Z" fill="#FE6117"/>
  <path d="M109.7,88.63 C109.7,88.63 112.08,90.63 115.03,91.09 C118.62,91.65 121.37,90.03 121.37,90.03 L120.45,93.62 C120.45,93.62 117.87,94.77 114.35,94.07 C111.55,93.51 109.61,91.93 109.61,91.93 L109.7,88.63 Z" fill="#FE8E06"/>
  <path d="M108.53,80.91 C108.53,80.91 113.46,80.98 117.12,79.71 C121.01,78.36 123.27,75.3 123.27,75.3 L123.55,79.85 C123.55,79.85 122.12,81.87 117.82,83.42 C114.8,84.51 109.4,84.19 109.4,84.19 L108.53,80.91 Z" fill="#FE8E06"/>
  <path d="M84.13,51.65 L80.77,53.1 C80.77,53.1 87.44,59.99 88.21,65.89 C89.05,72.37 86.73,76.86 86.1,78.28 C85.54,79.55 84.83,80.74 84.83,80.74 L80.89,81.02 C80.89,81.02 81.87,85.44 86.8,85.67 C92.85,85.95 93.84,80.88 93.84,80.88 C93.84,80.88 96.16,85.17 101.02,83.06 C105.88,80.95 103.84,76.02 103.84,76.02 L106.16,77.64 C106.16,77.64 110.49,75.8 113.27,70.39 C115.73,65.6 115.83,61.52 115.5,61.29 C115.17,61.06 114.19,60.82 114.19,60.82 C114.19,60.82 113.53,58.1 113.18,57.89 C113.2,58.83 113.06,63.08 111.73,66.81 C110.65,69.81 108.9,72.34 106.8,73.78 C105.46,74.7 104.41,74.55 104.41,74.55 C104.41,74.55 107.37,68.99 105.89,60.75 C104.63,53.75 99.7,49.93 99.7,49.93 L95.27,49.77 C95.27,49.77 101.04,53.08 102.52,61.88 C103.67,68.75 101.11,75.18 99.49,76.52 C97.87,77.86 88.93,79.69 88.93,79.69 C88.93,79.69 92.59,72.51 91.75,66.1 C90.86,59.56 87.01,54.33 84.13,51.65 Z" fill="#FE8E06"/>
  <path d="M41.68,58.29 C40.87,59.37 41.89,60.61 44.71,61.67 C47.53,62.73 51.76,63.05 54.35,63.29 C57.45,63.57 63.5,62.8 64.63,62.3 C65.76,61.81 66.11,60.33 65.47,59.63 C64.83,58.93 63.29,59.21 62.09,59.56 C60.89,59.91 58.78,60.36 54.56,60.19 C50.9,60.05 46.29,59.39 44.99,58.78 C43.93,58.29 42.52,57.17 41.68,58.29 Z" fill="#FE8E06"/>
  <path d="M24.06,57.94 C24.06,57.94 30.91,68.92 45.74,72.86 C57.33,75.94 63.76,72.95 65.45,72.02 C67.14,71.08 68.99,69.06 68.45,67.23 C67.79,64.98 63.69,65.12 56.46,65.68 C49.23,66.24 36.82,62.54 34.19,61.6 C31.56,60.66 24.9,57.66 24.06,57.94 Z" fill="#FE8E06"/>
  <path d="M38.04,52.59 C36.79,54.44 33.54,54.91 31.74,53.49 C29.99,52.11 29.84,49.74 31.09,47.9 C32.34,46.06 35.25,45.43 37.1,46.68 C38.95,47.93 39.29,50.75 38.04,52.59 Z" fill="#302C30"/>
</svg>
